X:83
T:Connaughtman's Rambles
M:6/8
L:1/8
S:Bdor (x4)
R:Jig
K:Bm
"D"FAA dAA | "G"BAB dAG | "D"FAA dfe | "G"dBB BAG |
"D"FAA dAA | "G"BAB "D"def | "A"gf(e "D"f2) e |1 "G"dBB "Em"BAG :|2 "G"d
BB
"Em"B3||
|: "Bm"fbb faa | fef deg | "A"fbb faa | fed e3 |
"G"fbb faa | fef def | "F#m"gf(e f2) e |1 "A/E"dBB B3 :|2 "A/E"dBB BAG |
|
